!!!COM:	Bach, Johann Sebastian
!!!CDT:	1685/02/21/-1750/07/28/
!!!OTL@@DE:	Gott lebet noch
!!!SCT:	BWV 320
!!!PC#:	234
!!!AGN:	chorale
**kern	**kern	**kern	**kern
*ICvox	*ICvox	*ICvox	*ICvox
*Ibass	*Itenor	*Ialto	*Isoprn
*I"Bass	*I"Tenor	*I"Alto	*I"Soprano
*clefF4	*clefGv2	*clefG2	*clefG2
*k[b-]	*k[b-]	*k[b-]	*k[b-]
*F:	*F:	*F:	*F:
*M3/4	*M3/4	*M3/4	*M3/4
*MM100	*MM100	*MM100	*MM100
=1-	=1-	=1-	=1-
4FF	4A	4c	4f
4F	4c	4f	4a
4D	4d	4f	4b
=2	=2	=2	=2
4C;	2.e;	2.g;	2.cc;
4c	.	.	.
4B-X	.	.	.
=3	=3	=3	=3
4A	4c	4f	4cc
4G	4d	4g	4b-
4A	4c	4f	4cc
=4	=4	=4	=4
4B-	4B-	2f	4dd
4A	4F	.	4cc
4B-	4B-	4f	4dd
=5	=5	=5	=5
2G	8B-L	8gL	4ee
.	8cJ	8aJ	.
.	4d	2b-	4dd
4C	4c	.	4ee
=6	=6	=6	=6
2F;	2.c;	2.a;	2.ff;
4FF	.	.	.
=7	=7	=7	=7
4D	2d	2f	2a
4C	.	.	.
4BB-	4d	4f	4b-
=8	=8	=8	=8
4AA	2c	8fL	4cc
.	.	8dJ	.
4GG	.	4e	4b-
4FF	4c	4f	4a
=9	=9	=9	=9
4C	2c	2e	2g
4BB-	.	.	.
4AA	4c	4f#	4a
=10	=10	=10	=10
4GG	4d	4g	4b-
4AA	4c	4fnX	4a
4BB-	4c	4e	4g
=11	=11	=11	=11
4AA	4c	8fL	2f
.	.	8eJ	.
4BB-	8B-L	4d	.
.	8AJ	.	.
4GG	4B-	4e	4g
=12	=12	=12	=12
4FF	2c	2f	2a
4F	.	.	.
4E	4c	4g	4g
=13	=13	=13	=13
4F	2c	2f	2a
4E	.	.	.
4D	4d	4f	4b
=14	=14	=14	=14
2.C;	2.e;	2.g;	2.cc;
=15	=15	=15	=15
4c	2g	2cc	2ee
4B-	.	.	.
4A	4f	4cc	4ff
=16	=16	=16	=16
4B-	8fL	4b-	2dd
.	8e	.	.
4BB-	8d	4f	.
.	8c#J	.	.
4A	4d	4b-	4ff
=17	=17	=17	=17
4G	2g	2b-	2ee
4F	.	.	.
4G	4f	4b-	4dd
=18	=18	=18	=18
4A	2e	2a	2cc#
4AA	.	.	.
4G;	4c#;	4e;	4a;
=19	=19	=19	=19
4F	2d	4.a	2dd
4E	.	.	.
.	.	8g	.
4D	4cnX	8fL	4a
.	.	8eJ	.
=20	=20	=20	=20
4G	4B-	4.d	4b-
4A	8fL	.	4a
.	8eJ	8c#	.
4B-	8dL	4d	4g
.	8eJ	.	.
=21	=21	=21	=21
4A	4f	2d	2f
4G	4d	.	.
4A	4A	4c#	8eL
.	.	.	8fJ
=22	=22	=22	=22
2.D;	2.F;	2.A;	2.d;
=23	=23	=23	=23
4AA	2A	4c	2f#
4D	.	4A	.
4C	4A	4d	4f#
=24	=24	=24	=24
4BB-	4B-	4d	4g
4AA	4c	4c	4f#
4GG	4d	4B-	4g
=25	=25	=25	=25
4F#	4A	2d	4a
4E	4G	.	4b-
4D	4F#	4d	4cc
=26	=26	=26	=26
4G	4G	4d	4b-
4D	4F#	4c	8aL
.	.	.	8b-J
4GG;	4G;	4B-;	4g;
=27	=27	=27	=27
4E	2G	4g	2cc
4C	.	4e	.
4FnX	4A	4fnX	4cc
=28	=28	=28	=28
4E	4c	4g	4cc
4D	4B	4f	4dd
4C	4c	4e	4ee
=29	=29	=29	=29
4D	2c	4d	4ff
4G	.	8eL	4ee
.	.	8fJ	.
4GG	4B	4g	4dd
=30	=30	=30	=30
2C	2c	2g	2ee
4C;	4G;	4e;	4cc;
=31	=31	=31	=31
2AA	2c	2f	4ff
.	.	.	4cc
4FF	4c	4f	4a
=32	=32	=32	=32
4BB-	2B-	2f	2dd
4B-	.	.	.
4A	4c	4f	4cc
=33	=33	=33	=33
4G	4d	2g	4b-
4E	4c	.	4cc
4F	4c	4f	4a
=34	=34	=34	=34
4C;	2.c;	4f;	2.g;
4c	.	2e	.
4B-	.	.	.
=35	=35	=35	=35
4A	2c	2f	4cc
4F	.	.	4a
4A	4c	4f	4f
=36	=36	=36	=36
4B-	4B-	4f	4dd
4G	4c	4g	4ee
[4F	4c	4a	4ff
=37	=37	=37	=37
8FL]	4c	2f	2a
8AAJ	.	.	.
4BB-	8dL	.	.
.	8c	.	.
4C	8B-	4e	8gL
.	8cJ	.	8fJ
=38	=38	=38	=38
2.FF;	2.A;	2.c;	2.f;
==	==	==	==
*-	*-	*-	*-
!!!hum2abc: -Q ''
!!!title: @{PC#}. @{OTL@@DE}
!!!YOR1: 371 vierstimmige Choralges&auml;nge von Johann Sebastian Bach, 
!!!YOR2: 4th ed. by Alfred D&ouml;rffel (Leipzig: Breitkopf und H&auml;rtel, 
!!!YOR2: c.1875). 178 pp. Plate "V.A.10".  reprint: J.S. Bach, 371 Four-Part 
!!!YOR4: Chorales (New York: Associated Music Publishers, Inc., c.1940).
!!!SMS: B&H, 4th ed, Alfred D&ouml;rffel, c.1875, plate V.A.10
!!!EED:  Craig Stuart Sapp
!!!EEV:  2009/05/22
